src/liquid/components/ld-bg-cells/assets/t-cell.svg

<svg viewBox="0 0 8000 8000" fill="none"
  xmlns="http://www.w3.org/2000/svg">
  <path fill-rule="evenodd" clip-rule="evenodd" d="M8000 0H0V8000H8000V0ZM4467.67 3699.45C4451.55 3696.53 4454.47 3680.41 4454.47 3680.41L4478.99 3545.41C4481.91 3529.29 4498.03 3532.21 4498.03 3532.21L4634.83 3557.05C4650.95 3559.97 4648.03 3576.09 4648.03 3576.09L4623.51 3711.09C4620.59 3727.21 4604.47 3724.29 4604.47 3724.29L4467.67 3699.45ZM3904.99 3621.45C3905.91 3635.37 3891.95 3636.29 3891.95 3636.29L3788.39 3643.01C3774.47 3643.93 3773.55 3629.97 3773.55 3629.97L3768.63 3554.01C3767.71 3540.09 3781.67 3539.17 3781.67 3539.17L3885.23 3532.45C3899.15 3531.53 3900.07 3545.49 3900.07 3545.49L3904.99 3621.45ZM4298.39 3796.13C4298.39 3796.13 4315.87 3807.69 4327.43 3790.17L4385.35 3702.37C4385.35 3702.37 4396.91 3684.89 4379.39 3673.33L4187.47 3546.73C4187.47 3546.73 4169.99 3535.17 4158.43 3552.69L4100.51 3640.49C4100.51 3640.49 4088.95 3657.97 4106.47 3669.53L4298.39 3796.13ZM4403.51 3812.37C4389.63 3810.81 4391.19 3796.93 4391.19 3796.93L4399.47 3723.41C4401.03 3709.53 4414.91 3711.09 4414.91 3711.09L4441.95 3714.13C4455.83 3715.69 4454.27 3729.57 4454.27 3729.57L4445.99 3803.09C4444.43 3816.97 4430.55 3815.41 4430.55 3815.41L4403.51 3812.37ZM4628.59 3844.81C4628.59 3844.81 4642.43 3846.61 4644.23 3832.77L4654.07 3757.29C4654.07 3757.29 4655.87 3743.45 4642.03 3741.65L4600.47 3736.25C4600.47 3736.25 4586.63 3734.45 4584.83 3748.29L4574.99 3823.77C4574.99 3823.77 4573.19 3837.61 4587.03 3839.41L4628.59 3844.81ZM4414.51 3919.01C4414.51 3919.01 4404.71 3937.53 4423.23 3947.33L4539.47 4008.89C4539.47 4008.89 4557.99 4018.69 4567.79 4000.17L4619.83 3901.93C4619.83 3901.93 4629.63 3883.41 4611.11 3873.61L4494.87 3812.01C4494.87 3812.01 4476.35 3802.21 4466.55 3820.73L4414.51 3919.01ZM4238.27 3906.49C4217.43 3904.17 4219.79 3883.33 4219.79 3883.33L4225.51 3832.53C4227.83 3811.69 4248.67 3814.05 4248.67 3814.05L4379.39 3828.73C4400.23 3831.05 4397.87 3851.89 4397.87 3851.89L4392.15 3902.69C4389.83 3923.53 4368.99 3921.17 4368.99 3921.17L4238.27 3906.49ZM4230.27 4162.77C4230.27 4162.77 4222.79 4182.33 4242.35 4189.85L4340.59 4227.41C4340.59 4227.41 4360.15 4234.89 4367.67 4215.33L4449.75 4000.57C4449.75 4000.57 4457.23 3981.01 4437.67 3973.49L4339.43 3935.93C4339.43 3935.93 4319.87 3928.45 4312.35 3948.01L4230.27 4162.77ZM4000.27 4045.81C4000.27 4045.81 3992.63 4065.33 4012.15 4072.97L4177.83 4137.81C4177.83 4137.81 4197.35 4145.45 4204.99 4125.93L4268.95 3962.45C4268.95 3962.45 4276.59 3942.93 4257.07 3935.29L4091.43 3870.41C4091.43 3870.41 4071.91 3862.77 4064.27 3882.29L4000.27 4045.81ZM4552.07 4159.37C4543.99 4170.73 4532.59 4162.65 4532.59 4162.65L4448.03 4102.53C4436.67 4094.45 4444.75 4083.05 4444.75 4083.05L4488.87 4021.01C4496.95 4009.65 4508.35 4017.73 4508.35 4017.73L4592.91 4077.85C4604.27 4085.93 4596.19 4097.33 4596.19 4097.33L4552.07 4159.37ZM3418.35 3858.53C3388.67 3842.81 3404.39 3813.13 3404.39 3813.13L3536.11 3564.49C3551.83 3534.81 3581.51 3550.53 3581.51 3550.53L3833.47 3684.01C3863.15 3699.73 3847.43 3729.41 3847.43 3729.41L3715.71 3978.05C3699.99 4007.73 3670.31 3992.01 3670.31 3992.01L3418.35 3858.53ZM3759.71 3997.93C3759.71 3997.93 3751.35 4021.65 3775.03 4030.01L3923.79 4082.53C3923.79 4082.53 3947.51 4090.89 3955.87 4067.21L4000.23 3941.49C4000.23 3941.49 4008.59 3917.77 3984.91 3909.41L3836.15 3856.89C3836.15 3856.89 3812.43 3848.53 3804.07 3872.21L3759.71 3997.93ZM3656.19 4190.93C3632.67 4188.29 3635.31 4164.77 3635.31 4164.77L3649.31 4040.25C3651.95 4016.73 3675.47 4019.37 3675.47 4019.37L3721.27 4024.53C3744.79 4027.17 3742.15 4050.69 3742.15 4050.69L3728.15 4175.21C3725.51 4198.73 3701.99 4196.09 3701.99 4196.09L3656.19 4190.93ZM3786.47 4081.77C3786.47 4081.77 3765.71 4078.97 3762.91 4099.73L3748.83 4203.97C3748.83 4203.97 3746.03 4224.73 3766.79 4227.53L3994.63 4258.29C3994.63 4258.29 4015.39 4261.09 4018.19 4240.33L4032.27 4136.09C4032.27 4136.09 4035.07 4115.33 4014.31 4112.53L3786.47 4081.77ZM3766.15 4442.69C3757.55 4473.17 3727.07 4464.57 3727.07 4464.57L3392.55 4370.21C3362.07 4361.61 3370.67 4331.13 3370.67 4331.13L3413.87 4178.17C3422.47 4147.69 3452.95 4156.29 3452.95 4156.29L3787.43 4250.61C3817.91 4259.21 3809.31 4289.69 3809.31 4289.69L3766.15 4442.69ZM3595.59 4137.61C3595.59 4137.61 3615.03 4139.05 3616.47 4119.61L3623.75 4022.05C3623.75 4022.05 3625.19 4002.61 3605.75 4001.17L3392.51 3985.21C3392.51 3985.21 3373.07 3983.77 3371.63 4003.21L3364.35 4100.77C3364.35 4100.77 3362.91 4120.21 3382.35 4121.65L3595.59 4137.61ZM4037.03 4322.77C4013.83 4313.09 4023.51 4289.89 4023.51 4289.89L4074.91 4166.89C4084.59 4143.69 4107.79 4153.37 4107.79 4153.37L4253.35 4214.21C4276.55 4223.89 4266.87 4247.09 4266.87 4247.09L4215.47 4370.09C4205.79 4393.29 4182.59 4383.61 4182.59 4383.61L4037.03 4322.77ZM3820.07 4343.69C3820.07 4343.69 3818.51 4357.57 3832.39 4359.13L3859.43 4362.17C3859.43 4362.17 3873.31 4363.73 3874.87 4349.85L3883.15 4276.33C3883.15 4276.33 3884.71 4262.45 3870.83 4260.89L3843.79 4257.85C3843.79 4257.85 3829.91 4256.29 3828.35 4270.17L3820.07 4343.69ZM3906.99 4341.09C3897.47 4337.69 3900.83 4328.17 3900.83 4328.17L3918.67 4277.61C3922.07 4268.09 3931.59 4271.45 3931.59 4271.45L3991.43 4292.57C4000.95 4295.97 3997.59 4305.49 3997.59 4305.49L3979.75 4356.05C3976.35 4365.57 3966.83 4362.21 3966.83 4362.21L3906.99 4341.09ZM3813.51 4446.65C3813.51 4446.65 3813.47 4467.61 3834.43 4467.65L3965.99 4467.85C3965.99 4467.85 3986.95 4467.89 3986.99 4446.93L3987.07 4395.81C3987.07 4395.81 3987.11 4374.85 3966.15 4374.81L3834.63 4374.61C3834.63 4374.61 3813.67 4374.57 3813.63 4395.53L3813.51 4446.65ZM4190.59 3846.93C4188.79 3860.77 4174.95 3858.97 4174.95 3858.97L4133.39 3853.57C4119.55 3851.77 4121.35 3837.93 4121.35 3837.93L4131.19 3762.45C4132.99 3748.61 4146.83 3750.41 4146.83 3750.41L4188.39 3755.81C4202.23 3757.61 4200.43 3771.45 4200.43 3771.45L4190.59 3846.93ZM3937.51 3838.29C3937.51 3838.29 3938.59 3859.21 3959.55 3858.13L4064.59 3852.65C4064.59 3852.65 4085.51 3851.57 4084.43 3830.61L4072.43 3601.01C4072.43 3601.01 4071.35 3580.09 4050.39 3581.17L3945.35 3586.65C3945.35 3586.65 3924.43 3587.73 3925.51 3608.69L3937.51 3838.29ZM3863.99 3848.97C3850.11 3847.41 3851.67 3833.53 3851.67 3833.53L3859.95 3760.01C3861.51 3746.13 3875.39 3747.69 3875.39 3747.69L3902.43 3750.73C3916.31 3752.29 3914.75 3766.17 3914.75 3766.17L3906.47 3839.69C3904.91 3853.57 3891.03 3852.01 3891.03 3852.01L3863.99 3848.97ZM3432.43 3700.57C3432.43 3700.57 3451.75 3703.09 3454.23 3683.77L3467.91 3578.61C3467.91 3578.61 3470.43 3559.29 3451.11 3556.81L3393.19 3549.25C3393.19 3549.25 3373.87 3546.73 3371.39 3566.05L3357.71 3671.21C3357.71 3671.21 3355.19 3690.53 3374.51 3693.01L3432.43 3700.57ZM3374.75 3878.05C3374.75 3878.05 3358.51 3873.09 3353.55 3889.37L3343.91 3921.01C3343.91 3921.01 3338.95 3937.25 3355.23 3942.21L3441.31 3968.41C3441.31 3968.41 3457.55 3973.37 3462.51 3957.09L3472.15 3925.45C3472.15 3925.45 3477.11 3909.21 3460.83 3904.25L3374.75 3878.05ZM4023.59 4454.21C4009.71 4452.65 4011.27 4438.77 4011.27 4438.77L4019.55 4365.25C4021.11 4351.37 4034.99 4352.93 4034.99 4352.93L4062.03 4355.97C4075.91 4357.53 4074.35 4371.41 4074.35 4371.41L4066.07 4444.93C4064.51 4458.81 4050.63 4457.25 4050.63 4457.25L4023.59 4454.21ZM4113.67 4383.53C4113.67 4383.53 4100.35 4379.25 4096.11 4392.57L4087.79 4418.49C4087.79 4418.49 4083.51 4431.81 4096.83 4436.05L4167.27 4458.69C4167.27 4458.69 4180.59 4462.97 4184.83 4449.65L4193.15 4423.73C4193.15 4423.73 4197.43 4410.41 4184.11 4406.17L4113.67 4383.53ZM4416.19 4391.01C4387.19 4387.65 4390.55 4358.69 4390.55 4358.69L4408.31 4205.01C4411.67 4176.01 4440.63 4179.37 4440.63 4179.37L4622.51 4200.37C4651.51 4203.73 4648.15 4232.69 4648.15 4232.69L4630.39 4386.37C4627.03 4415.37 4598.07 4412.01 4598.07 4412.01L4416.19 4391.01ZM4310.03 4446.73C4310.03 4446.73 4330.23 4452.33 4335.83 4432.13L4370.91 4305.37C4370.91 4305.37 4376.51 4285.17 4356.31 4279.57L4307.03 4265.93C4307.03 4265.93 4286.83 4260.33 4281.23 4280.53L4246.15 4407.29C4246.15 4407.29 4240.55 4427.49 4260.75 4433.09L4310.03 4446.73ZM4483.39 3785.73C4483.39 3785.73 4482.11 3792.77 4489.15 3794.01L4548.75 3804.85C4548.75 3804.85 4555.79 3806.13 4557.03 3799.09L4567.71 3740.29C4567.71 3740.29 4568.99 3733.25 4561.95 3732.01L4502.39 3721.21C4502.39 3721.21 4495.35 3719.93 4494.11 3726.97L4483.39 3785.73ZM4605.59 4062.41C4591.71 4060.85 4593.27 4046.97 4593.27 4046.97L4601.59 3973.45C4603.15 3959.57 4617.03 3961.13 4617.03 3961.13L4644.07 3964.17C4657.95 3965.73 4656.39 3979.61 4656.39 3979.61L4648.07 4053.13C4646.51 4067.01 4632.63 4065.45 4632.63 4065.45L4605.59 4062.41ZM4348.67 3622.89C4348.67 3622.89 4347.11 3631.49 4355.71 3633.09L4428.83 3646.37C4428.83 3646.37 4437.43 3647.93 4438.99 3639.33L4452.11 3567.17C4452.11 3567.17 4453.67 3558.57 4445.07 3556.97L4371.99 3543.69C4371.99 3543.69 4363.39 3542.13 4361.83 3550.73L4348.67 3622.89Z" fill="black"/>
</svg>

<svg viewBox="0 0 8000 8000" fill="none"
  xmlns="http://www.w3.org/2000/svg">
  <path fill-rule="evenodd" clip-rule="evenodd" d="M8000 0H0v8000h8000V0ZM4467.7 3699.4c-16.1-2.9-13.2-19-13.2-19l24.5-135c3-16.1 19-13.2 19-13.2l136.8 24.9c16.1 2.9 13.2 19 13.2 19l-24.5 135c-3 16.1-19 13.2-19 13.2l-136.8-24.9Zm-562.7-78c1 14-13 14.9-13 14.9l-103.6 6.7c-14 1-14.8-13-14.8-13l-5-76c-.9-14 13-14.8 13-14.8l103.6-6.8c14-.9 14.9 13 14.9 13l4.9 76Zm393.4 174.7s17.5 11.6 29-6l58-87.7s11.5-17.5-6-29l-192-126.7s-17.4-11.5-29 6l-57.9 87.8s-11.6 17.5 6 29l191.9 126.6Zm105.1 16.3c-13.9-1.6-12.3-15.5-12.3-15.5l8.3-73.5c1.5-13.9 15.4-12.3 15.4-12.3l27 3c14 1.6 12.4 15.5 12.4 15.5l-8.3 73.5c-1.6 13.9-15.4 12.3-15.4 12.3l-27-3Zm225 32.4s14 1.8 15.7-12l9.9-75.5s1.8-13.9-12-15.7l-41.6-5.3s-13.9-1.9-15.7 12l-9.8 75.5s-1.8 13.8 12 15.6l41.6 5.4Zm-214 74.2s-9.8 18.5 8.7 28.3l116.3 61.6s18.5 9.8 28.3-8.7l52-98.3s9.8-18.5-8.7-28.3L4495 3812s-18.5-9.8-28.3 8.7l-52 98.3Zm-176.2-12.5c-20.9-2.3-18.5-23.2-18.5-23.2l5.7-50.8c2.3-20.8 23.2-18.4 23.2-18.4l130.7 14.6c20.8 2.4 18.5 23.2 18.5 23.2l-5.8 50.8c-2.3 20.8-23.1 18.5-23.1 18.5l-130.7-14.7Zm-8 256.3s-7.5 19.5 12 27l98.3 37.6s19.5 7.5 27-12l82.1-214.8s7.5-19.6-12-27.1l-98.3-37.6s-19.5-7.5-27 12.1l-82.1 214.8Zm-230-117s-7.7 19.5 11.8 27.2l165.7 64.8s19.6 7.6 27.2-11.9l64-163.4s7.6-19.6-12-27.2l-165.6-64.9s-19.5-7.6-27.1 11.9l-64 163.5Zm551.8 113.6c-8.1 11.3-19.5 3.3-19.5 3.3l-84.6-60.2c-11.3-8-3.3-19.4-3.3-19.4l44.2-62c8-11.4 19.5-3.4 19.5-3.4l84.5 60.2c11.4 8 3.3 19.4 3.3 19.4l-44.1 62Zm-1133.8-300.9c-29.6-15.7-14-45.4-14-45.4l131.8-248.6c15.7-29.7 45.4-14 45.4-14l252 133.5c29.7 15.7 14 45.4 14 45.4l-131.8 248.7c-15.7 29.6-45.4 14-45.4 14l-252-133.6Zm341.4 139.4s-8.3 23.8 15.3 32.1l148.8 52.5s23.7 8.4 32-15.3l44.4-125.7s8.4-23.7-15.3-32l-148.8-52.6s-23.7-8.4-32 15.3l-44.4 125.7Zm-103.5 193c-23.5-2.6-20.9-26.1-20.9-26.1l14-124.6c2.6-23.5 26.2-20.8 26.2-20.8l45.8 5.1c23.5 2.7 20.8 26.2 20.8 26.2l-14 124.5c-2.6 23.5-26.1 20.9-26.1 20.9l-45.8-5.2Zm130.3-109.1s-20.8-2.8-23.6 18l-14 104.2s-2.9 20.7 17.9 23.5l227.8 30.8s20.8 2.8 23.6-18l14-104.2s2.9-20.8-17.9-23.6l-227.8-30.7Zm-20.3 360.9c-8.6 30.5-39.1 21.9-39.1 21.9l-334.5-94.4c-30.5-8.6-22-39-22-39l43.3-153c8.6-30.5 39-22 39-22l334.5 94.4c30.5 8.6 22 39 22 39l-43.3 153Zm-170.6-305s19.4 1.4 20.9-18l7.3-97.6s1.4-19.5-18-21l-213.3-15.9s-19.4-1.4-20.9 18l-7.3 97.6s-1.4 19.4 18 20.8l213.3 16Zm441.4 185c-23.2-9.6-13.5-32.8-13.5-32.8l51.4-123c9.7-23.2 32.9-13.5 32.9-13.5l145.6 60.8c23.2 9.7 13.5 32.9 13.5 32.9l-51.4 123c-9.7 23.2-33 13.5-33 13.5l-145.5-60.8Zm-217 21s-1.5 13.9 12.4 15.4l27 3s14 1.6 15.5-12.3l8.3-73.5s1.5-13.9-12.4-15.4l-27-3s-13.9-1.6-15.5 12.3l-8.2 73.5Zm87-2.6c-9.5-3.4-6.2-13-6.2-13l17.9-50.5c3.4-9.5 12.9-6.2 12.9-6.2l59.8 21.2c9.5 3.4 6.2 12.9 6.2 12.9l-17.8 50.6c-3.5 9.5-13 6.1-13 6.1l-59.8-21.1Zm-93.5 105.5s0 21 21 21l131.5.3s21 0 21-21v-51s.1-21-20.8-21l-131.6-.3s-21 0-21 21v51Zm377-599.7c-1.7 13.9-15.6 12-15.6 12l-41.5-5.3c-13.8-1.8-12-15.7-12-15.7l9.8-75.5c1.8-13.8 15.6-12 15.6-12l41.6 5.4c13.8 1.8 12 15.6 12 15.6l-9.8 75.5Zm-253-8.6s1 21 22 19.8l105-5.4s21-1.1 20-22l-12-229.7s-1.2-21-22.1-19.8l-105 5.5s-21 1-19.9 22l12 229.6ZM3864 3849c-13.9-1.6-12.3-15.5-12.3-15.5l8.3-73.5c1.5-13.9 15.4-12.3 15.4-12.3l27 3c14 1.6 12.3 15.5 12.3 15.5l-8.2 73.5c-1.6 13.9-15.5 12.3-15.5 12.3l-27-3Zm-431.6-148.4s19.3 2.5 21.8-16.8l13.7-105.2s2.5-19.3-16.8-21.8l-58-7.6s-19.2-2.5-21.7 16.9l-13.7 105.1s-2.5 19.3 16.8 21.8l58 7.6Zm-57.7 177.5s-16.2-5-21.1 11.3l-9.7 31.6s-5 16.3 11.3 21.2l86.1 26.2s16.3 5 21.2-11.3l9.7-31.7s5-16.2-11.4-21.2l-86-26.1Zm648.9 576.1c-13.9-1.6-12.3-15.4-12.3-15.4l8.3-73.6c1.5-13.8 15.4-12.3 15.4-12.3l27 3c14 1.6 12.3 15.5 12.3 15.5l-8.2 73.5c-1.6 14-15.5 12.4-15.5 12.4l-27-3Zm90-70.7s-13.3-4.3-17.5 9l-8.3 26s-4.3 13.3 9 17.6l70.5 22.6s13.3 4.3 17.5-9l8.3-26s4.3-13.3-9-17.5l-70.4-22.7Zm302.6 7.5c-29-3.4-25.6-32.3-25.6-32.3l17.7-153.7c3.4-29 32.3-25.6 32.3-25.6l182 21c29 3.3 25.5 32.3 25.5 32.3l-17.7 153.7c-3.4 29-32.3 25.6-32.3 25.6l-182-21Zm-106.2 55.7s20.2 5.6 25.8-14.6l35.1-126.7s5.6-20.2-14.6-25.8l-49.3-13.7s-20.2-5.6-25.8 14.6l-35 126.8s-5.6 20.2 14.6 25.8l49.2 13.6Zm173.4-661s-1.3 7 5.8 8.3l59.6 10.8s7 1.3 8.2-5.7l10.7-58.8s1.3-7-5.8-8.3l-59.5-10.8s-7-1.3-8.3 5.8l-10.7 58.7Zm122.2 276.7c-13.9-1.6-12.3-15.4-12.3-15.4l8.3-73.6c1.5-13.8 15.4-12.3 15.4-12.3l27 3c14 1.6 12.4 15.5 12.4 15.5l-8.3 73.5c-1.6 14-15.5 12.3-15.5 12.3l-27-3Zm-257-439.5s-1.5 8.6 7.1 10.2l73.1 13.3s8.6 1.5 10.2-7l13.1-72.2s1.6-8.6-7-10.2l-73.1-13.3s-8.6-1.6-10.2 7l-13.1 72.2Z" fill="currentColor"/>
</svg>
